X: 305797
M: 2/4
L: 1/16
K: C
(3(GAB) |\
c2c2c2c2 | cCDE FGAB | cBcd e2e2 | d2d2 d4 |\
dcde d2d2 | BGAB cdef | fagf egfd | c2e2c2 H|]
EF |\
EGcG cGcG | FAcA cAcA | GABc defg | fe^de c2GF |\
EGcG cGcG | FAcA cAcA | GABc dfdB | c2e2"^D.C."c2 |]


